!!!OTL: Espen - Zweiglein.
!!!ARE: Europa, Mitteleuropa, Deutschland
!!!SCT: A0178A
!!!TXL: @@GMH
!!!YEM: Copyright 1995, estate of Helmut Schaffrath.
**kern	**text
!! Mixed meters:  4/2; 6/2
*M4/2	*
*met(c|)	*
*clefC4	*
*k[]	*
*G:mix	*
=1	=1
!LO:TX:a:t=mixolyd.	!
2ryy	.
{2G	Het
2G	mir
2G	ein
=2	=2
2c	Eß-
2A	-pes
2B	ʒwei-
2c	-ge-
=3	=3
*M6/2	*
1d	-lein
2r}	.
{2G	ge-
2c	-bo-
2d	-gen
=4	=4
*M4/2	*
*lig	*
2e	ʒu
4d	.
4c	.
2B	.
*Xlig	*
2c	der
=5	=5
1d	Er-
2c}	-den,
{2c	den
=6	=6
2B	lieb-
2c	-ſten
2d	bu-
2e	-len
=7	=7
2e	den
2d	ich
*lig	*
2.c	han,
8BL	.
8AJ	.
=8	=8
1G	.
*Xlig	*
1c}	der
=9	=9
*lig	*
{2.A	iſt
4B	.
*Xlig	*
2c	mir
1d	ley-
=10-	=10-
.	.
2c	-der
2B	all
2B	ʒu
=11	=11
2A/	ſer-
2G	.
1A	.
=12	=12
0G/ll}	-re.
==	==
!!!GTL: Liebeslieder
!!!AGN: Romanze, Ballade, Lied
!! Forster III 1549 No. 27
!!!ONB: ESAC (Essen Associative Code) Database: ALTDEU
!!!AMT: irregular
!!!AIN: vox
!!!EED: Helmut Schaffrath
!!!EEV: 1.0
!!!RDF**kern: l = terminal long
!!!AMD: Mixolydian
!!!URL-scan: https://rosdok.uni-rostock.de/mcrviewer/recordIdentifier/rosdok_ppn738218359/iview2/phys_0339.iview2?x=-495.6391625615763&y=2291.8633454400115&scale=0.4629418472063854&rotation=0&layout=singlePageLayout&logicalDiv=log_0009
!!!ENC: Anna Maria Matuszewska
!!!EEV: 2024/07/03
*-	*-
